images/icon-facebook.svg

<svg width="48" height="48" fill="none" xmlns="http://www.w3.org/2000/svg"><path d="M48 24C48 10.745 37.255 0 24 0S0 10.745 0 24c0 11.979 8.776 21.908 20.25 23.708v-16.77h-6.094V24h6.094v-5.288c0-6.014 3.583-9.337 9.065-9.337 2.625 0 5.372.469 5.372.469v5.906h-3.026c-2.981 0-3.911 1.85-3.911 3.75V24h6.656l-1.064 6.938H27.75v16.77C39.224 45.908 48 35.978 48 24Z" fill="#1877F2"/><path d="M33.342 30.938 34.406 24H27.75v-4.5c0-1.898.93-3.75 3.911-3.75h3.026V9.844s-2.746-.469-5.372-.469c-5.482 0-9.065 3.322-9.065 9.337V24h-6.094v6.938h6.094v16.77c2.485.39 5.015.39 7.5 0v-16.77h5.592Z" fill="#fff"/></svg>

<svg width="48" height="48" viewBox="0 0 48 48" fill="none" xmlns="http://www.w3.org/2000/svg">
<g clip-path="url(#clip0_208_145)">
<path d="M48 24C48 10.745 37.255 0 24 0C10.745 0 0 10.745 0 24C0 35.979 8.776 45.908 20.25 47.708V30.938H14.156V24H20.25V18.712C20.25 12.698 23.833 9.375 29.315 9.375C31.94 9.375 34.687 9.844 34.687 9.844V15.75H31.661C28.68 15.75 27.75 17.6 27.75 19.5V24H34.406L33.342 30.938H27.75V47.708C39.224 45.908 48 35.978 48 24Z" fill="url(#paint0_linear_208_145)"/>
<path d="M33.342 30.938L34.406 24H27.75V19.5C27.75 17.602 28.68 15.75 31.661 15.75H34.687V9.844C34.687 9.844 31.941 9.375 29.315 9.375C23.833 9.375 20.25 12.697 20.25 18.712V24H14.156V30.938H20.25V47.708C22.735 48.098 25.265 48.098 27.75 47.708V30.938H33.342Z" fill="white"/>
</g>
<defs>
<linearGradient id="paint0_linear_208_145" x1="-2.29859" y1="23.8541" x2="48" y2="23.8541" gradientUnits="userSpaceOnUse">
<stop offset="0.0260229" stop-color="#13B0F5"/>
<stop offset="1" stop-color="#E70FAA"/>
</linearGradient>
<clipPath id="clip0_208_145">
<rect width="48" height="48" fill="white"/>
</clipPath>
</defs>
</svg>
